X: 1
T: Avril Quarrie
C: Gary Thomas 2002
S: T. Traub 2010-8-1
R: Reel
M: 4/4
L: 1/8
K: G
|: Bc |\
"G"dBAG "D"A2 Bc | "G"dBGD "C"E2 GF |\
"C"EFGA "G"Bcdg | "G"dBDE "F"=F2 ED |\
"C"CBcD BcGc |
"C"edec "G"Bd "F"=FE/D/ |\
"C"CBcD BcGc | "C"edec "G"G2 :|\
|: A2 |\
"G"BDDB "C"EE"D"cF | "G"Gedc dGdc |\
"G"BDDB "C"EE"D"cF |
"G"GABd "C"c2 BA |\
"G"BDDB "C"EE"D"cF | "G"Gedc dGcB |\
"F"=FGAB cBAG | =FdFG "D"A2 :|
